X:1
T:The Haughs o' Cromdale
M:4/4
L:1/16
K:F
F-G| A3 D D2E-G A3 G E3 G| A D3 D3 E C3 D E3 G| A3 D D3 E A3 G E3 G|\
 A3 Gc-AG-E D4 D2|E-D| C3 c c3 d c3 d c3 G| E3 G G3 A G3 A G3 E| D3 d d3 e f3 d e3 c|\
 A3 Gc-AG-E D4 D2||
